apps/movetcare.com/public/images/icons/neighborhood_fave_2023.svg

<svg fill="none" height="64" viewBox="0 0 56 64" width="56" xmlns="http://www.w3.org/2000/svg" xmlns:xlink="http://www.w3.org/1999/xlink"><linearGradient id="a" gradientUnits="userSpaceOnUse" x1="21.1681" x2="34.5653" y1="22.2432" y2="37.3876"><stop offset="0" stop-color="#45b0ea"/><stop offset=".5156" stop-color="#c6ec43"/><stop offset="1" stop-color="#fdf239"/></linearGradient><path d="m6 1.5h44c2.4853 0 4.5 2.01472 4.5 4.5v36.7243c0 1.5312-.7786 2.9573-2.0666 3.7853l-22 14.1429c-1.4823.9529-3.3845.9529-4.8668 0l-22.00001-14.1429c-1.288-.828-2.06659-2.2541-2.06659-3.7853v-36.7243c0-2.48528 2.01472-4.5 4.5-4.5z" fill="#f9fff0" stroke="#b8ec51" stroke-width="3"/><g fill="#000" fill-opacity=".8"><path d="m21.9644 48.9999c-2.109 0-1.8004-1.9066-.6756-2.5346.6756-.3394.6819-.495 1.335-.8797.1802-.1131 1.0071-.4102 1.2098-.3876 1.3071-.3394 2.0719-.5657 3.1529-.4978.1351 0 .2026 0 .1801-.2263-.045-.6789.1126-1.3805-.0225-2.0368-.1576-.6562.1802-1.2673 0-1.9462-.1351-.4752.0676-1.041.1576-1.5615.1314-.7919.4188-1.1311 1.4188-.6789.2027 1.1542 0 2.3083.0451 3.4625.0225.7241.1351 1.4936-.0226 2.1951-.1351.611.2478.6789.5631.6563.6305-.0453 1.2386.1584 1.8016.2942 2.5902.3394 2.8376 1.1994 4.0762 2.1272.4729.3621.4279.8826.3603 1.3805-.0225.1357-.1351.2715-.3603.2942-1.5764.1131-3.1529.1357-4.7293.0452-.8107-.0452-1.644.1132-2.4547.0453-1.3062-.1132-1.553.1131-2.8592 0-.2027-.0226-1.2621.2037-1.735.2263s.6678.0226-1.4413.0226z"/><path d="m38.0981 24.1455c-.1808.2997-.4994 1.1084 0 1.3485.9586-.2354 1.818.0214 2.7947 0 .5065 0 1.8068-.4507 1.8068 1.2229 0 1.6737-.138 2.6038-.5681 4.0391-.93 1.5322-1.2387 1.5322-2.0472 1.7975-.5727.1879-1.1713.3682-1.7245.3682-1.4681-.252-.9218 1.4769.0474 1.4769.9691 0 1.0592 0 1.6771-.2534.6179-.2533 1.0362-.2652 1.8663-.7958.7485-.4785 1.3079-1.6366 1.712-3.0719.4715-1.6745.4915-5.1777-.2139-5.9482-.7054-.7706-1.6515-.5107-2.5559-.5107-.832-.0214-2.035-.1012-2.7947.3269z"/><path d="m18.19 24.1455c.1809.2996.4994 1.1084 0 1.3485-.9586-.2355-1.818.0214-2.7947 0-.5064 0-1.8488-.1034-1.8488 1.5702 0 1.6737.1801 2.2564.6102 3.6917.9299 1.5322 1.2386 1.5322 2.0471 1.7975.5727.1879 1.1714.3682 1.7245.3682 1.4682-.2519 1.8727 1.477.9035 1.477-.9691 0-2.0101 0-2.628-.2534-.6178-.2534-1.0361-.2653-1.8662-.7959-.7486-.4784-1.6454-2.0677-2.0495-3.5031-.4715-1.6745-.368-4.2876.3374-5.0581.7054-.7706 1.8655-.9695 2.7698-.9695.832-.0214 2.0351-.1013 2.7947.3269z"/></g><path d="m28.812 39.65c-1.0088-.445-2.2362.3142-3.1979 0-2.6124 0-4.5415-1.5733-5.6901-3.2069-.8346-1.1688-1.143-2.5571-1.5165-3.9302-.3153-1.2142-.3828-1.7442-.3828-3.8191-.1352-.3753-.1802-.7947-.1577-1.1921.0676-.7947-.1575-1.5048-.0449-2.2995.1126-.3311-.079-.6014-.0001-1.056.2027-1.17.4053-2.318.5855-3.488.045-.2428.1351-.3532.3603-.4194.4955-.1766.9909-.3091 1.5089-.3312 1.5764-.0883 3.1754-.1766 4.7518-.1766 3.1078.0442 6.2157-.2649 9.301.1766.9008.1325 1.7791.1325 2.6799.1987.3378.0221.518.1325.6531.4194.5855 1.148.6531 2.3401.4279 3.5763-.1126.3312-.1802 1.17 0 1.5233-.1126.5298 0 .8908 0 1.4427.0225 1.9647.2702 3.5243-.0225 5.4449-.2589 1.2686-.829 2.5503-1.5329 3.9302-1.1485 1.6777-1.7618 2.3787-6.0565 3.0523-.563.0883-1.1261.0883-1.6665.1546zm5.2923-11.9938c.1126-.6622-.2027-1.1921-.5405-1.6556-.7432-1.0376-1.6891-1.744-3.1079-1.6557-1.0584.0662-1.9367.4415-2.6348 1.2362-.1352.1766-.2478.2428-.4279.0442-.473-.5519-1.1486-.7948-1.7791-1.1038-.8333-.3974-1.9818-.1766-2.6124.4856-.9008.9493-1.1035 2.0752-1.1035 3.3776.0225 1.6337.9458 2.7374 1.8917 3.8854.6531.8168 1.5539 1.3466 2.4547 1.8764.6756.4195 1.8017.3532 2.4322-.0883 1.2612-.8609 2.5674-1.6777 3.6709-2.7595 1.0134-1.0375 1.5764-2.2517 1.7566-3.6425z" fill="url(#a)"/><path d="m34.1043 27.6558c-.1801 1.3908-.7206 2.605-1.7565 3.6205-1.1035 1.0817-2.4097 1.8985-3.6709 2.7595-.6305.4415-1.7566.5077-2.4322.0883-.8783-.5519-1.7791-1.0818-2.4547-1.8765-.9233-1.1479-1.8692-2.2517-1.8917-3.8853-.0225-1.2804.2027-2.4063 1.1035-3.3776.608-.6623 1.7791-.8831 2.6124-.4857.6305.3091 1.3061.5519 1.7791 1.1038.1801.2207.2927.1324.4279-.0442.6756-.7947 1.5539-1.17 2.6348-1.2362 1.4188-.0883 2.3647.6181 3.1079 1.6557.3378.5077.653 1.0375.5404 1.6777zm-1.3962-.5739c-.0451-.8389-.6756-1.5453-1.4638-1.5233-1.1936.0221-2.1395.5519-2.7701 1.5674-.1351.1987-.2927.2649-.5179.2208-.4279-.1104-.8333-.287-1.0585-.6402-.1801-.287-.4279-.5298-.6981-.7064-.9909-.7065-1.9818-.5961-2.4547.4856-.2478.574-.4955 1.17-.4504 1.8985.0675.9052.2702 1.744.7656 2.4505.7883 1.1037 1.8467 1.9426 3.0853 2.5387.0901.0441.1577.1104.2928 0 .6981-.4857 1.4413-.9051 2.0719-1.4791.7882-.7285 1.5989-1.457 2.2745-2.318.6081-.7726.9684-1.5453.9234-2.4945z" fill="#000" fill-opacity=".8"/><path d="m0 6c0-3.31371 2.68629-6 6-6h44c3.3137 0 6 2.68629 6 6v8h-56z" fill="#b8ec51"/><path d="m14.7304 11c-.5103 0-.7627-.2847-.7627-.6929 0-.3061.1181-.51022.4458-.81101l2.3095-2.20752c.9561-.91845 1.2032-1.29443 1.2032-1.85302 0-.63916-.4942-1.09571-1.187-1.09571-.6231 0-1.0528.31153-1.3321.93457-.1826.32227-.3706.47266-.7197.47266-.4351 0-.6929-.25781-.6929-.66064 0-.12354.0215-.23633.0591-.34913.2632-.85937 1.2354-1.65966 2.7017-1.65966 1.6435 0 2.75.92382 2.75 2.25586 0 .94531-.4619 1.53613-1.7295 2.73388l-1.6758 1.61133v.03223h2.9219c.4189 0 .6714.25244.6714.64456 0 .3813-.2525.6445-.6714.6445zm9.516.1719c-1.9658 0-3.1636-1.55227-3.1636-4.06057 0-2.50293 1.2085-4.03906 3.1636-4.03906s3.1582 1.53076 3.1582 4.03369-1.1924 4.06594-3.1582 4.06594zm0-1.29983c.956 0 1.5093-.98291 1.5093-2.76074 0-1.76709-.5586-2.73926-1.5093-2.73926-.9453 0-1.5147.97754-1.5147 2.73926 0 1.77783.5586 2.76074 1.5147 2.76074zm5.4555 1.12793c-.5103 0-.7627-.2847-.7627-.6929 0-.3061.1181-.51022.4458-.81101l2.3095-2.20752c.9561-.91845 1.2032-1.29443 1.2032-1.85302 0-.63916-.4942-1.09571-1.1871-1.09571-.623 0-1.0527.31153-1.332.93457-.1826.32227-.3706.47266-.7197.47266-.4351 0-.6929-.25781-.6929-.66064 0-.12354.0215-.23633.0591-.34913.2632-.85937 1.2353-1.65966 2.7017-1.65966 1.6435 0 2.75.92382 2.75 2.25586 0 .94531-.462 1.53613-1.7295 2.73388l-1.6758 1.61133v.03223h2.9219c.4189 0 .6713.25244.6713.64456 0 .3813-.2524.6445-.6713.6445zm9.3656.1719c-1.4771 0-2.3848-.6392-2.75-1.40188-.086-.17725-.1236-.34912-.1236-.51025 0-.41895.2686-.68213.7144-.68213.3223 0 .5264.1289.6875.42431.2739.54248.6929.86475 1.4985.86475.795 0 1.3428-.46191 1.3428-1.10645.0054-.75195-.5478-1.17089-1.4878-1.17089h-.3384c-.3921 0-.6176-.23096-.6176-.58008 0-.33838.2255-.57471.6176-.57471h.3169c.8111 0 1.3374-.44043 1.3374-1.07422 0-.62305-.4189-1.03662-1.2031-1.03662-.6553 0-1.0527.27393-1.3052.82178-.1772.36523-.3652.49951-.7304.49951-.4512 0-.6822-.26318-.6822-.65527 0-.18262.0376-.33838.1182-.521.3438-.75732 1.2246-1.39111 2.5942-1.39111 1.6382 0 2.7447.81103 2.7447 2.05175 0 .98291-.7036 1.62745-1.6167 1.81543v.03223c1.1548.10742 1.9013.78418 1.9013 1.85303 0 1.40722-1.2192 2.34182-3.0185 2.34182z" fill="#055c00"/></svg>

<svg width="56" height="64" viewBox="0 0 56 64" fill="none" xmlns="http://www.w3.org/2000/svg">
<path d="M6 1.5H50C52.4853 1.5 54.5 3.51472 54.5 6V42.7243C54.5 44.2555 53.7214 45.6816 52.4334 46.5096L30.4334 60.6525C28.9511 61.6054 27.0489 61.6054 25.5666 60.6525L3.56659 46.5096C2.27859 45.6816 1.5 44.2555 1.5 42.7243V6C1.5 3.51472 3.51472 1.5 6 1.5Z" fill="#F9FFF0" stroke="#B8EC51" stroke-width="3"/>
<path d="M21.9644 48.9999C19.8554 48.9999 20.164 47.0933 21.2888 46.4653C21.9644 46.1259 21.9707 45.9703 22.6238 45.5856C22.804 45.4725 23.6309 45.1754 23.8336 45.198C25.1407 44.8586 25.9055 44.6323 26.9865 44.7002C27.1216 44.7002 27.1891 44.7002 27.1666 44.4739C27.1216 43.795 27.2792 43.0934 27.1441 42.4371C26.9865 41.7809 27.3243 41.1698 27.1441 40.4909C27.009 40.0157 27.2117 39.4499 27.3017 38.9294C27.4331 38.1375 27.7205 37.7983 28.7205 38.2505C28.9232 39.4047 28.7205 40.5588 28.7656 41.713C28.7881 42.4371 28.9007 43.2066 28.743 43.9081C28.6079 44.5191 28.9908 44.587 29.3061 44.5644C29.9366 44.5191 30.5447 44.7228 31.1077 44.8586C33.6979 45.198 33.9453 46.058 35.1839 46.9858C35.6568 47.3479 35.6118 47.8684 35.5442 48.3663C35.5217 48.502 35.4091 48.6378 35.1839 48.6605C33.6075 48.7736 32.031 48.7962 30.4546 48.7057C29.6439 48.6605 28.8106 48.8189 27.9999 48.751C26.6937 48.6378 26.4469 48.8641 25.1407 48.751C24.938 48.7284 23.8786 48.9547 23.4057 48.9773C22.9328 48.9999 24.0735 48.9999 21.9644 48.9999Z" fill="black" fill-opacity="0.8"/>
<path d="M38.0981 24.1455C37.9173 24.4452 37.5987 25.2539 38.0981 25.494C39.0567 25.2586 39.9161 25.5154 40.8928 25.494C41.3993 25.494 42.6996 25.0433 42.6996 26.7169C42.6996 28.3906 42.5616 29.3207 42.1315 30.756C41.2015 32.2882 40.8928 32.2882 40.0843 32.5535C39.5116 32.7414 38.913 32.9217 38.3598 32.9217C36.8917 32.6697 37.438 34.3986 38.4072 34.3986C39.3763 34.3986 39.4664 34.3986 40.0843 34.1452C40.7022 33.8919 41.1205 33.88 41.9506 33.3494C42.6991 32.8709 43.2585 31.7128 43.6626 30.2775C44.1341 28.603 44.1541 25.0998 43.4487 24.3293C42.7433 23.5587 41.7972 23.8186 40.8928 23.8186C40.0608 23.7972 38.8578 23.7174 38.0981 24.1455Z" fill="black" fill-opacity="0.8"/>
<path d="M18.19 24.1455C18.3709 24.4451 18.6894 25.2539 18.19 25.494C17.2314 25.2585 16.372 25.5154 15.3953 25.494C14.8889 25.494 13.5465 25.3906 13.5465 27.0642C13.5465 28.7379 13.7266 29.3206 14.1567 30.7559C15.0866 32.2881 15.3953 32.2881 16.2038 32.5534C16.7765 32.7413 17.3752 32.9216 17.9283 32.9216C19.3965 32.6697 19.801 34.3986 18.8318 34.3986C17.8627 34.3986 16.8217 34.3986 16.2038 34.1452C15.586 33.8918 15.1677 33.8799 14.3376 33.3493C13.589 32.8709 12.6922 31.2816 12.2881 29.8462C11.8166 28.1717 11.9201 25.5586 12.6255 24.7881C13.3309 24.0175 14.491 23.8186 15.3953 23.8186C16.2273 23.7972 17.4304 23.7173 18.19 24.1455Z" fill="black" fill-opacity="0.8"/>
<path d="M28.812 39.65C27.8032 39.205 26.5758 39.9642 25.6141 39.65C23.0017 39.65 21.0726 38.0767 19.924 36.4431C19.0894 35.2743 18.781 33.886 18.4075 32.5129C18.0922 31.2987 18.0247 30.7687 18.0247 28.6938C17.8895 28.3185 17.8445 27.8991 17.867 27.5017C17.9346 26.707 17.7095 25.9969 17.8221 25.2022C17.9347 24.8711 17.7431 24.6008 17.822 24.1462C18.0247 22.9762 18.2273 21.8282 18.4075 20.6582C18.4525 20.4154 18.5426 20.305 18.7678 20.2388C19.2633 20.0622 19.7587 19.9297 20.2767 19.9076C21.8531 19.8193 23.4521 19.731 25.0285 19.731C28.1363 19.7752 31.2442 19.4661 34.3295 19.9076C35.2303 20.0401 36.1086 20.0401 37.0094 20.1063C37.3472 20.1284 37.5274 20.2388 37.6625 20.5257C38.248 21.6737 38.3156 22.8658 38.0904 24.102C37.9778 24.4332 37.9102 25.272 38.0904 25.6253C37.9778 26.1551 38.0904 26.5161 38.0904 27.068C38.1129 29.0327 38.3606 30.5923 38.0679 32.5129C37.809 33.7815 37.2389 35.0632 36.535 36.4431C35.3865 38.1208 34.7732 38.8218 30.4785 39.4954C29.9155 39.5837 29.3524 39.5837 28.812 39.65ZM34.1043 27.6562C34.2169 26.994 33.9016 26.4641 33.5638 26.0006C32.8206 24.963 31.8747 24.2566 30.4559 24.3449C29.3975 24.4111 28.5192 24.7864 27.8211 25.5811C27.6859 25.7577 27.5733 25.8239 27.3932 25.6253C26.9202 25.0734 26.2446 24.8305 25.6141 24.5215C24.7808 24.1241 23.6323 24.3449 23.0017 25.0071C22.1009 25.9564 21.8982 27.0823 21.8982 28.3847C21.9207 30.0184 22.844 31.1221 23.7899 32.2701C24.443 33.0869 25.3438 33.6167 26.2446 34.1465C26.9202 34.566 28.0463 34.4997 28.6768 34.0582C29.938 33.1973 31.2442 32.3805 32.3477 31.2987C33.3611 30.2612 33.9241 29.047 34.1043 27.6562Z" fill="url(#paint0_linear_6858_121291)"/>
<path d="M34.1043 27.6558C33.9242 29.0466 33.3837 30.2608 32.3478 31.2763C31.2443 32.358 29.9381 33.1748 28.6769 34.0358C28.0464 34.4773 26.9203 34.5435 26.2447 34.1241C25.3664 33.5722 24.4656 33.0423 23.79 32.2476C22.8667 31.0997 21.9208 29.9959 21.8983 28.3623C21.8758 27.0819 22.101 25.956 23.0018 24.9847C23.6098 24.3224 24.7809 24.1016 25.6142 24.499C26.2447 24.8081 26.9203 25.0509 27.3933 25.6028C27.5734 25.8235 27.686 25.7352 27.8212 25.5586C28.4968 24.7639 29.3751 24.3886 30.456 24.3224C31.8748 24.2341 32.8207 24.9405 33.5639 25.9781C33.9017 26.4858 34.2169 27.0156 34.1043 27.6558ZM32.7081 27.0819C32.663 26.243 32.0325 25.5366 31.2443 25.5586C30.0507 25.5807 29.1048 26.1105 28.4742 27.126C28.3391 27.3247 28.1815 27.3909 27.9563 27.3468C27.5284 27.2364 27.123 27.0598 26.8978 26.7066C26.7177 26.4196 26.4699 26.1768 26.1997 26.0002C25.2088 25.2937 24.2179 25.4041 23.745 26.4858C23.4972 27.0598 23.2495 27.6558 23.2946 28.3843C23.3621 29.2895 23.5648 30.1283 24.0602 30.8348C24.8485 31.9385 25.9069 32.7774 27.1455 33.3735C27.2356 33.4176 27.3032 33.4839 27.4383 33.3735C28.1364 32.8878 28.8796 32.4684 29.5102 31.8944C30.2984 31.1659 31.1091 30.4374 31.7847 29.5764C32.3928 28.8038 32.7531 28.0311 32.7081 27.0819Z" fill="black" fill-opacity="0.8"/>
<path d="M0 6C0 2.68629 2.68629 0 6 0H50C53.3137 0 56 2.68629 56 6V14H0V6Z" fill="#B8EC51"/>
<path d="M14.7304 11C14.2201 11 13.9677 10.7153 13.9677 10.3071C13.9677 10.001 14.0858 9.79688 14.4135 9.49609L16.723 7.28857C17.6791 6.37012 17.9262 5.99414 17.9262 5.43555C17.9262 4.79639 17.432 4.33984 16.7392 4.33984C16.1161 4.33984 15.6864 4.65137 15.4071 5.27441C15.2245 5.59668 15.0365 5.74707 14.6874 5.74707C14.2523 5.74707 13.9945 5.48926 13.9945 5.08643C13.9945 4.96289 14.016 4.8501 14.0536 4.7373C14.3168 3.87793 15.289 3.07764 16.7553 3.07764C18.3988 3.07764 19.5053 4.00146 19.5053 5.3335C19.5053 6.27881 19.0434 6.86963 17.7758 8.06738L16.1 9.67871V9.71094H19.0219C19.4408 9.71094 19.6933 9.96338 19.6933 10.3555C19.6933 10.7368 19.4408 11 19.0219 11H14.7304ZM24.2464 11.1719C22.2806 11.1719 21.0828 9.61963 21.0828 7.11133C21.0828 4.6084 22.2913 3.07227 24.2464 3.07227C26.2015 3.07227 27.4046 4.60303 27.4046 7.10596C27.4046 9.60889 26.2122 11.1719 24.2464 11.1719ZM24.2464 9.87207C25.2024 9.87207 25.7557 8.88916 25.7557 7.11133C25.7557 5.34424 25.1971 4.37207 24.2464 4.37207C23.3011 4.37207 22.7317 5.34961 22.7317 7.11133C22.7317 8.88916 23.2903 9.87207 24.2464 9.87207ZM29.7019 11C29.1916 11 28.9392 10.7153 28.9392 10.3071C28.9392 10.001 29.0573 9.79688 29.385 9.49609L31.6945 7.28857C32.6506 6.37012 32.8977 5.99414 32.8977 5.43555C32.8977 4.79639 32.4035 4.33984 31.7106 4.33984C31.0876 4.33984 30.6579 4.65137 30.3786 5.27441C30.196 5.59668 30.008 5.74707 29.6589 5.74707C29.2238 5.74707 28.966 5.48926 28.966 5.08643C28.966 4.96289 28.9875 4.8501 29.0251 4.7373C29.2883 3.87793 30.2604 3.07764 31.7268 3.07764C33.3703 3.07764 34.4768 4.00146 34.4768 5.3335C34.4768 6.27881 34.0148 6.86963 32.7473 8.06738L31.0715 9.67871V9.71094H33.9934C34.4123 9.71094 34.6647 9.96338 34.6647 10.3555C34.6647 10.7368 34.4123 11 33.9934 11H29.7019ZM39.0675 11.1719C37.5904 11.1719 36.6827 10.5327 36.3175 9.77002C36.2315 9.59277 36.1939 9.4209 36.1939 9.25977C36.1939 8.84082 36.4625 8.57764 36.9083 8.57764C37.2306 8.57764 37.4347 8.70654 37.5958 9.00195C37.8697 9.54443 38.2887 9.8667 39.0943 9.8667C39.8893 9.8667 40.4371 9.40479 40.4371 8.76025C40.4425 8.0083 39.8893 7.58936 38.9493 7.58936H38.6109C38.2188 7.58936 37.9933 7.3584 37.9933 7.00928C37.9933 6.6709 38.2188 6.43457 38.6109 6.43457H38.9278C39.7389 6.43457 40.2652 5.99414 40.2652 5.36035C40.2652 4.7373 39.8463 4.32373 39.0621 4.32373C38.4068 4.32373 38.0094 4.59766 37.7569 5.14551C37.5797 5.51074 37.3917 5.64502 37.0265 5.64502C36.5753 5.64502 36.3443 5.38184 36.3443 4.98975C36.3443 4.80713 36.3819 4.65137 36.4625 4.46875C36.8063 3.71143 37.6871 3.07764 39.0567 3.07764C40.6949 3.07764 41.8014 3.88867 41.8014 5.12939C41.8014 6.1123 41.0978 6.75684 40.1847 6.94482V6.97705C41.3395 7.08447 42.086 7.76123 42.086 8.83008C42.086 10.2373 40.8668 11.1719 39.0675 11.1719Z" fill="#055C00"/>
<defs>
<linearGradient id="paint0_linear_6858_121291" x1="21.1681" y1="22.2432" x2="34.5653" y2="37.3876" gradientUnits="userSpaceOnUse">
<stop stop-color="#45B0EA"/>
<stop offset="0.5156" stop-color="#C6EC43"/>
<stop offset="1" stop-color="#FDF239"/>
</linearGradient>
</defs>
</svg>
